X:1
T:Title
%%score { ( 1 2 ) | ( 3 4 ) }
L:1/8
Q:1/4=100
M:6/4
K:C
V:1 treble nm="Grand Piano"
V:2 treble 
V:3 bass 
V:4 bass 
V:1
 [CG]4 [G,CE]2 E2- [Ec]2 [FA]2 | [CEG]4 [G,CE]2 [CG]6 | [CA]4 [A,Fc]2 [CEG]2 [CE]2 [G,C]2 | %3
w: Hubert~P.~Main * * * *|||
 [B,D]4 [CE]2 [B,D]6 | z6 .[CG]6 | [CEG]4 E2 G6 | z2 G2 [DFB]2 .[CEB]4 [_B,EG]2 | z6 G6 | .G6 z6 | %9
w: ||||||
 .G6 G6 | [Ee]2 [Gc]2 [CFA]2 [CEG]2[K:bass] [CE]2 [E,C]2 | .[G,CE]4 [F,B,D]2 [E,C]6 |] %12
w: |||
V:2
 z6 .[CG]6 | x12 | x12 | x12 | [G,CE]4 [G,DF]2 E2- [Ec]2 [A,FA]2 | x12 | .D6 z6 | %7
 .[B,DG]4 [A,C^F]2 [G,B,]4 D2 | z2 E2 [_EA]2 .[G,=EG]4 [Ec]2 | z2 E2 [_EA]2 z2 F2 D,2 | %10
 x8[K:bass] x4 | x12 |] %12
V:3
 [C,E,]4 C,2 z2 G,2 A,B, | C,4 C,2 [C,E,]6 | [F,,F,]4 F,,2 z2 G,2 E,2 | G,4 G,2 G,6 | %4
 C,4 C,2 z2 G,2 C,2 | C,4 [C,G,C]2 [C,E,C]6 | [B,,G,]4 G,,2 z2 A2 ^C,2 | z2 A,2 D,2 z4 F,2 | %8
 [E,C]2 G,2 [C,^F,]2 z2 C2 [C,G,]2 | [E,C]2 G,2 [B,,F,]2 [G,E]2 B,4 | C2- [E,C]2 F,2 z2 G,2 C,A,, | %11
 z2 A,2 G,,2 C,6 |] %12
V:4
 z6 C,6 | x12 | z6 .C,6 | x12 | z6 .C,6 | x12 | z6 .C,6 | .D,6 G,,6 | .C,6 .C,6 | .C,6 .E,6 | %10
 .C,6 .C,6 | .G,,6 z6 |] %12

